X:110
T:Ge mej ett par nya skor
R:sl-polska
H:SvL \"Ogl 494 fr{\aa}n Norra Vi
A:\"Osterg\"otland
Z:id:hn-sp-110
M:3/4
L:1/16
K:Dm
D2E2 F2G2 A2^c2 | ^c2d2 d2=c2 A2A2 |
w:Ge* mig* ett par ny-*a* skor, de
A2c2 c2B2 G2B2 | B4 A4 z2D2 |
w:gam-la har jag dan-sat s\"on-der. Och
D2E2 F2G2 A2^c2 | ^c2d2 d2=c2 A2A2 |
w:al-drig vill jag ha de gam-la skor-na mer, och
A2c2 c2B2 G2B2 | B4 A4 z2 ||
w:al-drig vill jag tj\"a-na b\"on-der.
F2 | F4 A2G2 E2E2 | E4 G2F2 D4 |
w:Den gr{\aa} rock-en {\aa} och bl{\aa} rock-en p{\aa},
F2F2 A2G2 E2E2 | E2E2 G2F2 D2F2 |
w:bon-de-dr\"ang i fjol och n\"amn-de-man i {\aa}r, och
F2F2 A2G2 E2G2 | F4 D4 z4 ||
w:n\"ast-a {\aa} s{\aa} blir jag herr-e!
